src/pages/Main/ui/Program/ScheduleItem/images/push.svg

<svg fill="none" height="26" viewBox="0 0 23 26" width="23" xmlns="http://www.w3.org/2000/svg"><g fill="#c1bfbf"><path d="m13.3319 4.51197c1.132-.24347 1.8509-1.35219 1.6057-2.4764-.2451-1.1242-1.3615-1.838174-2.4935-1.594701-1.1319.243472-1.8508 1.352191-1.6057 2.476391.2452 1.12421 1.3615 1.83818 2.4935 1.59471z"/><path d="m23 6.01823c0-.46467-.3448-.84923-.7941-.9153-.0186-.0077-.0391-.01211-.0607-.01211h-10.1943c-.0662 0-.5432-.00193-.8296.30225-.2259.23977-.4831.60947-.5227.66204-1.25174 1.65221-10.336743 16.55399-10.336743 16.55399-.3032308.5299-.2791165 1.1834-.2372629 1.5284.0249459.205.0867559.4052.1934689.5827.259991.4319.644989.5619.850927.5954.06348.0105.12667-.0184.16021-.0732l6.97542-10.4082c.05072-.0834.16519-.1005.23864-.036l4.29814 3.7748c.1846.1514.0241.3427.0241.3427l-1.9748 3.4603c-.94077 1.6681.3791 2.7219.8348 3.0214.0765.0504.1799.0239.224-.0559l3.2441-5.8887c.8027-1.4138-.3105-2.2749-.3105-2.2749l-3.8552-3.4294c-.0848-.0754-.1004-.2015-.0366-.2951l3.4797-5.10909c.2949-.47237.1294-1.02568.0282-1.2726-.0255-.06249.02-.13048.0879-.13048h7.5092c.0236.00192.0477.00303.0718.00303s.048-.00111.0718-.00303h.0056c.0116 0 .023-.00138.0341-.00386.462-.05478.8204-.44484.8204-.91859z"/></g></svg>

<svg width="23" height="26" viewBox="0 0 23 26" fill="none" xmlns="http://www.w3.org/2000/svg">
    <path d="M13.3319 4.51197C14.4639 4.2685 15.1828 3.15978 14.9376 2.03557C14.6925 0.91137 13.5761 0.197396 12.4441 0.440869C11.3122 0.684341 10.5933 1.79306 10.8384 2.91726C11.0836 4.04147 12.1999 4.75544 13.3319 4.51197Z" fill="#C1BFBF"/>
    <path d="M23 6.01823C23 5.55356 22.6552 5.169 22.2059 5.10293C22.1873 5.09523 22.1668 5.09082 22.1452 5.09082H11.9509C11.8847 5.09082 11.4077 5.08889 11.1213 5.39307C10.8954 5.63284 10.6382 6.00254 10.5986 6.05511C9.34686 7.70732 0.261857 22.6091 0.261857 22.6091C-0.0413738 23.139 -0.0172595 23.7925 0.0245941 24.1375C0.04954 24.3425 0.11135 24.5427 0.218063 24.7202C0.478054 25.1521 0.863052 25.2821 1.06899 25.3156C1.13247 25.3261 1.19566 25.2972 1.2292 25.2424L8.20462 14.8342C8.25534 14.7508 8.36981 14.7337 8.44326 14.7982L12.7414 18.573C12.926 18.7244 12.7655 18.9157 12.7655 18.9157L10.7907 22.376C9.84993 24.0441 11.1698 25.0979 11.6255 25.3974C11.702 25.4478 11.8054 25.4213 11.8495 25.3415L15.0936 19.4528C15.8963 18.039 14.7831 17.1779 14.7831 17.1779L10.9279 13.7485C10.8431 13.6731 10.8275 13.547 10.8913 13.4534L14.371 8.34431C14.6659 7.87194 14.5004 7.31863 14.3992 7.07171C14.3737 7.00922 14.4192 6.94123 14.4871 6.94123H21.9963C22.0199 6.94315 22.044 6.94426 22.0681 6.94426C22.0922 6.94426 22.1161 6.94315 22.1399 6.94123H22.1455C22.1571 6.94123 22.1685 6.93985 22.1796 6.93737C22.6416 6.88259 23 6.49253 23 6.01878V6.01823Z" fill="#C1BFBF"/>
</svg>
